!!!!SEGMENT: pl-kk--kk-i-2--014_sebastian-z-felsztyna--virgini-mariae-laudes.krn
!!!cenid: 16xx:1627
!!!COM: Sebastian z Felsztyna
!!!COM-rismID: pe30096436
!!!CDT: ~1480->1543
!!!CNT: Polish
!!!OTL: Virgini Mariae laudes
!!!PDT:
!!!AGN: Sacred
!!!SMS-siglum: PL-Kk
!!!SMS-shelfmark: Kk.I.2
!!!SMS-shelfwork: 014 W
!!!NIFC-rismSourceID: 300258030
!!!NIFC-islandoraID: pl-kk:750
!!!URL-pdf-islandora: https://repozytorium.nifc.pl/islandora/object/pl-kk%3A750/datastream/PDF/view
!!!URL-scan: https://polish.musicsources.pl/pl/lokalizacje/galeria/rekopisy/5828 @EN{Scan on Polish Music Sources Website} @PL{Skany w portalu Dziedzictwo Muzyki Polskiej w otwartym dostępie}
!!!ONB-nifc: skany: C: 0044-0045; A: 0137-0138; T: 0241; B: 0339;
!!!AIN: 1 alto 1 bass 1 soprn 1 tenor
!!!key: d:dor
**kern	**text	**text	**kern	**text	**text	**kern	**text	**text	**kern	**text	**text
*part4	*part4	*part4	*part3	*part3	*part3	*part2	*part2	*part2	*part1	*part1	*part1
*staff4	*staff4	*staff4	*staff3	*staff3	*staff3	*staff2	*staff2	*staff2	*staff1	*staff1	*staff1
*I"BASVS	*	*	*I"TENOR	*	*	*I"ALTVS	*	*	*I"DISCANTVS	*	*
*I'B	*	*	*I'T	*	*	*I'A	*	*	*I'S	*	*
*Ibass	*	*	*Itenor	*	*	*Ialto	*	*	*Isoprn	*	*
*ICvox	*	*	*ICvox	*	*	*ICvox	*	*	*ICvox	*	*
*clefF4	*	*	*clefC4	*	*	*clefC4	*	*	*clefC3	*	*
*k[]	*	*	*k[]	*	*	*k[]	*	*	*k[]	*	*
*d:dor	*	*	*d:dor	*	*	*d:dor	*	*	*d:dor	*	*
*M2/1	*	*	*M2/1	*	*	*M2/1	*	*	*M2/1	*	*
*met(C|)	*	*	*met(C|)	*	*	*met(C|)	*	*	*met(C|)	*	*
=1-	=1-	=1-	=1-	=1-	=1-	=1-	=1-	=1-	=1-	=1-	=1-
!LO:TX:a:t=Proſa Tempore Paſchali.	!	!	!	!	!	!LO:TX:a:t=Proſa pro\ntempore Paſchali	!	!	!LO:TX:t=P:problem=kreska pseudotaktowa	!	!
1D	VIr-	.	1D	Vir-	.	1A	Vir-	.	1d	Vir-	.
!LO:TX:t=P:problem=kreska pseudotaktowa	!	!	!	!	!	!LO:TX:t=P:problem=kreska pseudotaktowa	!	!	!	!	!
1G	-gi-	.	1C	-gi-	.	1c	-gi-	.	1e	-gi-	.
=2-	=2-	=2-	=2-	=2-	=2-	=2-	=2-	=2-	=2-	=2-	=2-
*2\right	*	*	*	*	*	*	*	*	*2\right	*	*
!	!	!	!LO:TX:t=P:problem=kreska pseudotaktowa	!	!	!	!	!	!	!	!
2F\	-ni	.	1D	-ni	.	1A	-ni	.	2f\	-ni	.
2.D/	Ma-	.	.	.	.	.	.	.	2.f\	Ma-	.
!	!	!	!	!	!	!LO:TX:t=P:problem=kreska pseudotaktowa	!	!	!	!	!
.	.	.	1F	Ma-	.	1A	Ma-	.	.	.	.
4E\	.	.	.	.	.	.	.	.	4e\	.	.
!LO:TX:t=P:problem=kreska pseudotaktowa	!	!	!	!	!	!	!	!	!	!	!
2F\	-ri-	.	.	.	.	.	.	.	1d\	.	.
=3-	=3-	=3-	=3-	=3-	=3-	=3-	=3-	=3-	=3-	=3-	=3-
1E	-ae	.	1G	-ri-	.	2B\	-ri-	.	.	.	.
!	!	!	!	!	!	!	!	!	!LO:TX:t=P:problem=kreska pseudotaktowa	!	!
.	.	.	.	.	.	2G/	-ae	.	2c	-ri-	.
!	!	!	!LO:TX:t=P:problem=kreska pseudotaktowa	!	!	!	!	!	!	!	!
2.D/	.	.	1F	-ae	.	2.A/	lau-	.	1d	-ae	.
!LO:TX:t=P:problem=kreska pseudotaktowa	!	!	!	!	!	!	!	!	!	!	!
4C/	.	.	.	.	.	4B\	.	.	.	.	.
=4-	=4-	=4-	=4-	=4-	=4-	=4-	=4-	=4-	=4-	=4-	=4-
*	*	*	*lig	*	*	*	*	*	*	*	*
!	!	!	!	!	!	!LO:TX:t=P:problem=kreska pseudotaktowa	!	!	!	!	!
4AA/	.	.	1E	Lau-	.	1c	.	.	1e	lau-	.
4BB/	.	.	.	.	.	.	.	.	.	.	.
!LO:TX:t=P:problem=kreska pseudotaktowa	!	!	!	!	!	!	!	!	!	!	!
2C/	.	.	.	.	.	.	.	.	.	.	.
!	!	!	!	!	!	!	!	!	!LO:TX:t=P:problem=kreska pseudotaktowa	!	!
2.D/	lau-	.	1F	.	.	2.A/	-des	.	1d	-des	.
4E\	.	.	.	.	.	4G/	.	.	.	.	.
*	*	*	*Xlig	*	*	*	*	*	*	*	*
=5-	=5-	=5-	=5-	=5-	=5-	=5-	=5-	=5-	=5-	=5-	=5-
!	!	!	!LO:TX:t=P:problem=kreska pseudotaktowa	!	!	!	!	!	!	!	!
2F\	-des	.	1D,<	-des	.	2F/	.	.	2r	.	.
!LO:TX:t=P:problem=kreska pseudotaktowa	!	!	!	!	!	!LO:TX:t=P:problem=kreska pseudotaktowa	!	!	!	!	!
2D/	.	.	.	.	.	2f\	in-	.	2d\	in-	.
2C/	.	.	1A	in-	.	2e\	.	.	2e\	-to-	.
!LO:TX:t=P:problem=kreska pseudotaktowa	!	!	!	!	!	!	!	!	!LO:TX:t=P:problem=kreska pseudotaktowa	!	!
2D/	in-	.	.	.	.	1d\	.	.	2f\	.	.
=6-	=6-	=6-	=6-	=6-	=6-	=6-	=6-	=6-	=6-	=6-	=6-
!LO:TX:t=P:problem=kreska pseudotaktowa	!	!	!	!	!	!	!	!	!	!	!
1E	-to-	.	1G	-to-	.	.	.	.	2g\	.	.
!	!	!	!	!	!	!LO:TX:t=P:problem=kreska pseudotaktowa	!	!	!	!	!
.	.	.	.	.	.	2c\	-to-	.	2e\	-nent	.
!LO:TX:t=P:problem=kreska pseudotaktowa	!	!	!LO:TX:t=P:problem=kreska pseudotaktowa	!	!	!	!	!	!LO:TX:t=P:problem=kreska pseudotaktowa	!	!
1D	-nent	.	1F	-ne(n)t	.	2d\	-nent	.	1f	Chri-	.
.	.	.	.	.	.	4A\	Chri-	.	.	.	.
.	.	.	.	.	.	4B\	.	.	.	.	.
=7-	=7-	=7-	=7-	=7-	=7-	=7-	=7-	=7-	=7-	=7-	=7-
2C/	Chri-	.	1G	chri-	.	4c\	.	.	4e\	-ſti-	.
.	.	.	.	.	.	4d\	.	.	4d\	.	.
!LO:TX:t=P:problem=kreska pseudotaktowa	!	!	!	!	!	!LO:TX:t=P:problem=kreska pseudotaktowa	!	!	!	!	!
2C/	-ſti-	.	.	.	.	2e\	.	.	4c\	.	.
!	!	!	!	!	!	!	!	!	!LO:TX:t=P:problem=kreska pseudotaktowa	!	!
.	.	.	.	.	.	.	.	.	4B/	.	.
2.D\	-a-	.	1F	-sti-	.	2d\	.	.	2.A/	.	.
.	.	.	.	.	.	1A\	.	.	.	.	.
!	!	!	!	!	!	!	!	!	!LO:TX:t=P:problem=kreska pseudotaktowa	!	!
4C/	.	.	.	.	.	.	.	.	4B/	.	.
=8-	=8-	=8-	=8-	=8-	=8-	=8-	=8-	=8-	=8-	=8-	=8-
2AA/	.	.	2E/	-a-	.	.	.	.	2c/	.	.
2BB-y/	.	.	2D/	.	.	2G/	-sti-	.	1d	.	.
1AA	.	.	1E	.	.	1A	-a-	.	.	.	.
.	.	.	.	.	.	.	.	.	2c/	-a-	.
=9-	=9-	=9-	=9-	=9-	=9-	=9-	=9-	=9-	=9-	=9-	=9-
0Dl;;	-ni.	.	0Dl;;	-ni	.	0Al;;	-ni.	.	0dl;;	-ni.	.
!LO:LB:g=original	!	!	!LO:LB:g=original	!	!	!LO:LB:g=original	!	!	!LO:PB:g=original	!	!
=10||	=10||	=10||	=10||	=10||	=10||	=10||	=10||	=10||	=10||	=10||	=10||
*M2/1	*	*	*M2/1	*	*	*M2/1	*	*	*M2/1	*	*
*met(C|)	*	*	*met(C|)	*	*	*met(C|)	*	*	*met(C|)	*	*
!LO:TX:t=P:problem=kreska pseudotaktowa	!	!	!	!	!	!	!	!	!	!	!
0r	.	.	1A,<	E-	Mors	1c	E-	Mors	1e	E-	Mors
*	*	*	*	*	*	*	*	*	*2\left	*	*
!	!	!	!LO:TX:t=P:problem=kreska pseudotaktowa	!	!	!LO:TX:t=P:problem=kreska pseudotaktowa	!	!	!	!	!
.	.	.	1c	-ua	et	1A	.	et	2e\	-ua	et
!	!	!	!	!	!	!	!	!	!LO:TX:t=P:problem=przekreślona synkopowana wartość	!	!
.	.	.	.	.	.	.	.	.	1f\	tri-	vi-
=11-	=11-	=11-	=11-	=11-	=11-	=11-	=11-	=11-	=11-	=11-	=11-
1D	E-	Mors	1d	tri-	Vi-	2A/	-ua	Vi-	.	.	.
.	.	.	.	.	.	2.A/	tri-	-ta	4e\	.	.
!	!	!	!	!	!	!	!	!	!LO:TX:t=P:problem=kreska pseudotaktowa	!	!
.	.	.	.	.	.	.	.	.	4d\	.	.
!	!	!	!LO:TX:t=P:problem=kreska pseudotaktowa	!	!	!	!	!	!	!	!
1F	-ua	et	1A	-stis	-ta	.	.	.	2c/	.	.
.	.	.	.	.	.	4B\	.	.	.	.	.
!	!	!	!	!	!	!LO:TX:t=P:problem=kreska pseudotaktowa	!	!	!LO:TX:t=P:problem=kreska pseudotaktowa	!	!
.	.	.	.	.	.	2c\	.	.	2f\	-stis	-ta
=12-	=12-	=12-	=12-	=12-	=12-	=12-	=12-	=12-	=12-	=12-	=12-
1G	tri-	Vi-	1G	ab-	mo-	2B\	-ſtis	mo-	2d\	.	.
!	!	!	!	!	!	!	!	!	!LO:TX:t=P:problem=kreska pseudotaktowa	!	!
.	.	.	.	.	.	1d	ab-	-du-	2g\	ab-	mo-
2D/	.	-ta	1A	-stu-	-du-	.	.	.	2f\	-stu-	-du-
!LO:TX:t=P:problem=kreska pseudotaktowa	!	!	!	!	!	!LO:TX:t=P:problem=kreska pseudotaktowa	!	!	!LO:TX:t=P:problem=kreska pseudotaktowa	!	!
2C/	.	.	.	.	.	2e\	.	-lo	2e\	-lit	-lo
=13-	=13-	=13-	=13-	=13-	=13-	=13-	=13-	=13-	=13-	=13-	=13-
!	!	!	!LO:TX:t=P:problem=kreska pseudotaktowa	!	!	!	!	!	!	!	!
2D/	-ſtis	mo-	1A,<	-lit	-lo	2f\	.	.	2d\	sed	con-
2E\	.	.	.	.	.	1e	.	.	4c/	.	.
!	!	!	!	!	!	!	!	!	!LO:TX:t=P:problem=kreska pseudotaktowa	!	!
.	.	.	.	.	.	.	.	.	4B/	.	.
1F	ab-	.	1A	sed	con-	.	.	.	2.A/	ma-	.
!	!	!	!	!	!	!LO:TX:t=P:problem=kreska pseudotaktowa	!	!	!	!	!
.	.	.	.	.	.	2d\	-ſtu-	.	.	.	.
.	.	.	.	.	.	.	.	.	4B/	.	.
=14-	=14-	=14-	=14-	=14-	=14-	=14-	=14-	=14-	=14-	=14-	=14-
!LO:TX:t=P:problem=kreska pseudotaktowa	!	!	!	!	!	!	!	!	!	!	!
1E	-stu-	-du-	1G	ma-	-ue-	1e	-lit	.	2c/	.	.
!	!	!	!	!	!	!	!	!	!LO:TX:t=P:problem=kreska pseudotaktowa	!	!
.	.	.	.	.	.	.	.	.	2B/	.	.
1AA,<	-lit	-lo	1A	-ri-	-ne-	2e\	Sed	con-	2A/	-ri-	-ue-
!	!	!	!	!	!	!LO:TX:t=P:problem=kreska pseudotaktowa	!	!	!	!	!
.	.	.	.	.	.	2c\	Ma-	-ue-	2e\	-a	-ne-
=15-	=15-	=15-	=15-	=15-	=15-	=15-	=15-	=15-	=15-	=15-	=15-
!	!	!	!LO:TX:t=P:problem=kreska pseudotaktowa	!	!	!	!	!	!	!	!
2E\	ſed	con-	1G	-a	-re	1c	-ri-	-ne-	2c/	.	-re
!LO:TX:t=P:problem=kreska pseudotaktowa	!	!	!	!	!	!	!	!	!LO:TX:t=P::problem=kreska pseudotaktowa&colon;między nutą a kropką	!	!
2C/	Ma-	-ue-	.	.	.	.	.	.	2.e\	pro-	mi-
1D	-ri-	-ne-	1F	pro-	mi-	2A/	-a	-re	.	.	.
.	.	.	.	.	.	.	.	.	4d\	.	.
!	!	!	!	!	!	!LO:TX:t=P:problem=kreska pseudotaktowa	!	!	!	!	!
.	.	.	.	.	.	2A/	pro-	mi-	1d\	-tu-	-ran-
=16-	=16-	=16-	=16-	=16-	=16-	=16-	=16-	=16-	=16-	=16-	=16-
*	*	*	*lig	*	*	*	*	*	*	*	*
2AA/	-a	-re	1E	-tu-	-ran-	0A	-tu-	-ran-	.	.	.
!LO:TX:t=P:problem=kreska pseudotaktowa	!	!	!	!	!	!	!	!	!LO:TX:t=P:problem=kreska pseudotaktowa	!	!
2AA/	pro-	mi-	.	.	.	.	.	.	2c/	.	.
1D	-tu-	-ran-	1F	.	.	.	.	.	2d\	-lit	-do
!	!	!	!	!	!	!	!	!	!LO:TX:t=P:problem=kreska pseudotaktowa	!	!
.	.	.	.	.	.	.	.	.	2d\	na-	Ma-
*	*	*	*Xlig	*	*	*	*	*	*	*	*
=17-	=17-	=17-	=17-	=17-	=17-	=17-	=17-	=17-	=17-	=17-	=17-
!	!	!	!LO:TX:t=P:problem=kreska pseudotaktowa	!	!	!	!	!	!	!	!
2GG,</	-lit	-do	1D	-lit	-do	2G/	-lit	-do	2d\	-tum	-ri-
!LO:TX:t=P:problem=kreska pseudotaktowa	!	!	!	!	!	!	!	!	!	!	!
2D/	na-	Ma-	.	.	.	1A	na-	Ma-	1f	qui	-ae
2D/	-tum	-ri-	1F,<	na-	Ma-	.	.	.	.	.	.
!	!	!	!	!	!	!LO:TX:t=P:problem=kreska pseudotaktowa	!	!	!	!	!
1F\	qui	-ae	.	.	.	2A/	-tum	-ri-	4e\	.	.
!	!	!	!	!	!	!	!	!	!LO:TX:t=P:problem=kreska pseudotaktowa	!	!
.	.	.	.	.	.	.	.	.	4d\	.	.
=18-	=18-	=18-	=18-	=18-	=18-	=18-	=18-	=18-	=18-	=18-	=18-
!	!	!	!LO:TX:t=P:problem=kreska pseudotaktowa	!	!	!	!	!	!	!	!
.	.	.	1G	-tum	-ri-	1G	qui	-ae	1c	.	.
!LO:TX:t=P:problem=kreska pseudotaktowa	!	!	!	!	!	!	!	!	!	!	!
2E\	.	.	.	.	.	.	.	.	.	.	.
*	*	*	*	*	*	*	*	*	*custos:f	*	*
1F	re-	fi-	1D	qui	-ae	2A/	re-	fi-	2d\	.	.
!	!	!	!	!	!	!	!	!	!LO:LB:g=original	!	!
!	!	!	!	!	!	!	!	!	!LO:TX:t=P::problem=kreska pseudotaktowa&colon;między nutą a kropką	!	!
.	.	.	.	.	.	1d\	.	.	2.f\	re-	fi-
=19-	=19-	=19-	=19-	=19-	=19-	=19-	=19-	=19-	=19-	=19-	=19-
2.D/	-de-	-li-	1F	re-	fi-	.	.	.	.	.	.
.	.	.	.	.	.	.	.	.	4g\	.	.
.	.	.	.	.	.	4c\	.	.	1a	.	.
!LO:TX:t=P:problem=kreska pseudotaktowa	!	!	!	!	!	!LO:TX:t=P:problem=kreska pseudotaktowa	!	!	!	!	!
4E\	.	.	.	.	.	4B\	.	.	.	.	.
1F	.	.	1D	-de-	-li-	2A/	.	.	.	.	.
.	.	.	.	.	.	2B\	.	.	4g\	.	.
!	!	!	!	!	!	!	!	!	!LO:TX:t=P:problem=kreska pseudotaktowa	!	!
.	.	.	.	.	.	.	.	.	4f\	.	.
=20-	=20-	=20-	=20-	=20-	=20-	=20-	=20-	=20-	=20-	=20-	=20-
!LO:TX:t=P:problem=kreska pseudotaktowa	!	!	!LO:TX:t=P:problem=kreska pseudotaktowa	!	!	!	!	!	!	!	!
1G	.	.	1C	-mit	-us	1c	-de-	-li-	4e\	.	.
.	.	.	.	.	.	.	.	.	2f\	-de-	-li-
.	.	.	.	.	.	.	.	.	4e\	.	.
*custos:FF	*	*	*	*	*	*	*	*	*	*	*
2F\	.	.	1F	pec-	reg-	2A/	-mit	-us	2f\	-mit	-us
!LO:LB:g=original	!	!	!	!	!	!	!	!	!	!	!
!LO:TX:t=P:problem=przekreślona synkopowana wartość	!	!	!	!	!	!	!	!	!	!	!
1FF/	-mit	-us	.	.	.	1c\	pec-	reg-	1f\	pec-	reg-
=21-	=21-	=21-	=21-	=21-	=21-	=21-	=21-	=21-	=21-	=21-	=21-
.	.	.	1F	-ca-	-nat	.	.	.	.	.	.
*	*	*	*	*	*	*custos:A	*	*	*	*	*
!LO:TX:t=P:problem=kreska pseudotaktowa	!	!	!	!	!	!LO:TX:t=P:problem=kreska pseudotaktowa	!	!	!	!	!
2GG/	pec-	reg-	.	.	.	2B\	-ca-	-nat	4e\	-ca-	.
!	!	!	!	!	!	!	!	!	!LO:TX:t=P:problem=kreska pseudotaktowa	!	!
.	.	.	.	.	.	.	.	.	4d\	.	.
!	!	!	!	!	!	!LO:LB:g=original	!	!	!LO:TX:a:t=P:problem=♯ above	!	!
2AA/	.	-nat	2E/	-to-	Vi-	1A	-to-	vi-	2c#X/	-to-	-nat
2FF/	.	.	2F/	.	.	.	.	.	1d\	.	vi-
=22-	=22-	=22-	=22-	=22-	=22-	=22-	=22-	=22-	=22-	=22-	=22-
2GG/	-ca-	Vi-	1E	.	.	2B-X\	.	.	.	.	.
2AA/	.	.	.	.	.	4A/	.	.	2c#y/	.	.
!	!	!	!	!	!	!LO:TX:t=P:problem=kreska pseudotaktowa	!	!	!	!	!
.	.	.	.	.	.	4G/	.	.	.	.	.
2BB-X/	to-	.	[1Dl;;	-res	-uus.	2F/	.	.	[1dl;;	-res	-uus.
!LO:TX:t=P:problem=kreska pseudotaktowa	!	!	!	!	!	!	!	!	!	!	!
2AA/	.	.	.	.	.	2G/	.	.	.	.	.
=23-	=23-	=23-	=23-	=23-	=23-	=23-	=23-	=23-	=23-	=23-	=23-
2.BB-y/	.	.	0D]	.	.	2F/	.	.	0d]	.	.
.	.	.	.	.	.	2B-\	.	.	.	.	.
!LO:TX:t=P:problem=kreska pseudotaktowa	!	!	!	!	!	!	!	!	!	!	!
4C/	.	.	.	.	.	.	.	.	.	.	.
1Dl;;	-res.	-uus.	.	.	.	1Al;;	-res	-uus.	.	.	.
!LO:LB:g=original	!	!	!	!	!	!	!	!	!	!	!
=24||	=24||	=24||	=24||	=24||	=24||	=24||	=24||	=24||	=24||	=24||	=24||
*M2/1	*	*	*M2/1	*	*	*M2/1	*	*	*M2/1	*	*
*met(C|)	*	*	*met(C|)	*	*	*met(C|)	*	*	*met(C|)	*	*
1A	DIC	An-	1AA,<	Dic	An-	1c	Dic	An-	1e	Dic	An-
!	!	!	!	!	!	!LO:TX:t=P:problem=kreska pseudotaktowa	!	!	!LO:TX:t=P:problem=kreska pseudotaktowa	!	!
2G\	no-	-ge-	1C	no-	-ge-	1c	no-	-ge-	1e	no-	-ge-
!LO:TX:t=P:problem=kreska pseudotaktowa	!	!	!	!	!	!	!	!	!	!	!
2E\	-bis	-lus	.	.	.	.	.	.	.	.	.
=25-	=25-	=25-	=25-	=25-	=25-	=25-	=25-	=25-	=25-	=25-	=25-
!LO:SIC:v:l:s=est:verse2	!	!	!LO:TX:t=P:problem=kreska pseudotaktowa	!	!	!	!	!	!	!	!
1F	Ma-	es	1D,<	-bis	-lus	2A/	-bis	-lus	2d\	-bis	-lus
.	.	.	.	.	.	2.d\	Ma-	est	1f	Ma-	eſt
1D	-ri-	te-	1F	Ma-	est	.	.	.	.	.	.
.	.	.	.	.	.	4c\	.	.	.	.	.
.	.	.	.	.	.	4A\	-ri-	te-	4e\	.	.
!	!	!	!	!	!	!LO:TX:t=P:problem=kreska pseudotaktowa	!	!	!LO:TX:t=P:problem=kreska pseudotaktowa	!	!
.	.	.	.	.	.	4B\	.	.	4d\	.	.
=26-	=26-	=26-	=26-	=26-	=26-	=26-	=26-	=26-	=26-	=26-	=26-
!LO:TX:t=P:problem=kreska pseudotaktowa	!	!	!	!	!	!	!	!	!	!	!
1C	-a	-stis	1G	-ri-	te-	2c,<\	-a	-ſtis	2e\	.	.
.	.	.	.	.	.	1c	Vir-	ad	2c/	-ri-	te-
!	!	!	!LO:TX:t=P:problem=kreska pseudotaktowa	!	!	!	!	!	!LO:TX:t=P:problem=kreska pseudotaktowa	!	!
2r	.	.	1D	-a	-stis	.	.	.	1d	-a	-ſtis
!	!	!	!	!	!	!LO:TX:t=P:problem=kreska pseudotaktowa	!	!	!	!	!
1F\	Vir-	ad	.	.	.	2B\	-go	me	.	.	.
=27-	=27-	=27-	=27-	=27-	=27-	=27-	=27-	=27-	=27-	=27-	=27-
.	.	.	1C	Vir-	ad	2A/	cle-	miſ-	2r	.	.
!LO:TX:t=P:problem=kreska pseudotaktowa	!	!	!	!	!	!	!	!	!	!	!
2E\	-go	me	.	.	.	2G/	-mens	-sus	2e\	Vir-	ad
!	!	!	!LO:TX:t=P:problem=kreska pseudotaktowa	!	!	!	!	!	!	!	!
1D	cle-	miſ-	1F	-go	me	2A/	et	cae-	2f\	-go	me
!	!	!	!	!	!	!	!	!	!LO:TX:t=P:problem=kreska pseudotaktowa	!	!
.	.	.	.	.	.	2.B-X\	pi-	-le-	2d\	cle-	miſ-
=28-	=28-	=28-	=28-	=28-	=28-	=28-	=28-	=28-	=28-	=28-	=28-
2C/	-mens	-sus	2E/	cle-	miſ-	.	.	.	2e\	-mens	-sus
.	.	.	.	.	.	4A/	.	.	.	.	.
2AA/	et	cae-	2C/	-mens	-sus	1A	.	.	2.e\	et	cae-
!	!	!	!LO:TX:t=P:problem=kreska pseudotaktowa	!	!	!	!	!	!	!	!
1BB-X,<	pi-	-le-	1D	et	cae-	.	.	.	.	.	.
.	.	.	.	.	.	.	.	.	4d\	.	.
!	!	!	!	!	!	!LO:TX:t=P:problem=kreska pseudotaktowa	!	!	!	!	!
.	.	.	.	.	.	2G/	.	.	1d\	pi-	-le-
=29-	=29-	=29-	=29-	=29-	=29-	=29-	=29-	=29-	=29-	=29-	=29-
!LO:TX:t=P:problem=kreska pseudotaktowa	!	!	!	!	!	!LO:TX:t=P:problem=kreska pseudotaktowa	!	!	!	!	!
1AA	-a	-stis	1E	pi-	-le-	0A	-a	-ſtis	.	.	.
*	*	*	*	*	*	*	*	*	*custos:d	*	*
!	!	!	!	!	!	!	!	!	!LO:TX:t=P:problem=kreska pseudotaktowa	!	!
.	.	.	.	.	.	.	.	.	2c#X/	.	.
!	!	!	!LO:TX:t=P:problem=kreska pseudotaktowa	!	!	!	!	!	!LO:LB:g=original	!	!
2r	.	.	1D	-a	-stis	.	.	.	2d\	-a	-ſtis
1D\	quo-	pro-	.	.	.	.	.	.	1f\	quo-	pro-
=30-	=30-	=30-	=30-	=30-	=30-	=30-	=30-	=30-	=30-	=30-	=30-
!	!	!	!LO:TX:t=P:problem=kreska pseudotaktowa	!	!	!	!	!	!	!	!
.	.	.	1F	quo-	pro-	2r	.	.	.	.	.
4C/	.	.	.	.	.	2A/	quo-	pro-	4e\	.	.
!LO:TX:t=P:problem=kreska pseudotaktowa	!	!	!	!	!	!	!	!	!LO:TX:t=P:problem=kreska pseudotaktowa	!	!
4BBny/	.	.	.	.	.	.	.	.	4d\	.	.
2AA/	.	.	1A	-mo-	-ceſ-	2c\	-mo-	-ceſ-	2cny/	.	.
!	!	!	!	!	!	!LO:TX:t=P:problem=kreska pseudotaktowa	!	!	!	!	!
2D\	-mo-	-ceſ-	.	.	.	2d\	-do	-sit	2f\	-mo-	.
=31-	=31-	=31-	=31-	=31-	=31-	=31-	=31-	=31-	=31-	=31-	=31-
!	!	!	!LO:TX:t=P:problem=kreska pseudotaktowa	!	!	!	!	!	!	!	!
2GG/	-do	-sit	1G	-do	-sit	2Bny\	fa-	ex	2d\	-do	-ceſ-
!LO:TX:t=P:problem=kreska pseudotaktowa	!	!	!	!	!	!	!	!	!LO:TX:t=P:problem=przekreślona synkopowana wartość	!	!
2C/	fa-	ex	.	.	.	1c	-cta	me	1e	fa-	-sit
!	!	!	!LO:TX:t=P:problem=kreska pseudotaktowa	!	!	!	!	!	!	!	!
2AA/	.	.	1A	fa-	ex	.	.	.	.	.	.
*	*	*	*	*	*	*custos:d	*	*	*	*	*
!	!	!	!	!	!	!LO:TX:t=P:problem=kreska pseudotaktowa	!	!	!LO:TX:t=P:problem=przekreślona synkopowana wartość	!	!
2.D/	.	.	.	.	.	2A/	es	spes	1f\	-cta	ex
!	!	!	!	!	!	!LO:LB:g=original	!	!	!	!	!
=32-	=32-	=32-	=32-	=32-	=32-	=32-	=32-	=32-	=32-	=32-	=32-
!	!	!	!LO:TX:t=P:problem=kreska pseudotaktowa	!	!	!	!	!	!	!	!
.	.	.	1F	-cta	me	2.d\	ge-	me-	.	.	.
4C/	.	.	.	.	.	.	.	.	.	.	.
!	!	!	!	!	!	!	!	!	!LO:TX:t=P:problem=przekreślona synkopowana wartość	!	!
4BB-X/	.	.	.	.	.	.	.	.	1d	es	me
!LO:TX:t=P:problem=kreska pseudotaktowa	!	!	!	!	!	!	!	!	!	!	!
4AA/	-cta	.	.	.	.	4c\	.	.	.	.	.
*custos:C	*	*	*	*	*	*	*	*	*	*	*
!	!	!	!LO:TX:t=P:problem=kreska pseudotaktowa	!	!	!	!	!	!	!	!
2GG/	es	me	1G	es	ſpes	4B\	.	.	.	.	.
.	.	.	.	.	.	4A\	.	.	.	.	.
!LO:LB:g=original	!	!	!	!	!	!LO:TX:t=P:problem=kreska pseudotaktowa	!	!	!LO:TX:t=P:problem=przekreślona synkopowana wartość	!	!
2.C/	ge-	ſpes	.	.	.	2G/	.	.	1e\	ge-	spes
=33-	=33-	=33-	=33-	=33-	=33-	=33-	=33-	=33-	=33-	=33-	=33-
*	*	*	*lig	*	*	*	*	*	*	*	*
.	.	.	1E	ge-	me-	2.c\	.	.	.	.	.
4BB-y/	.	.	.	.	.	.	.	.	.	.	.
!	!	!	!	!	!	!	!	!	!LO:TX:t=P:problem=kreska pseudotaktowa	!	!
4AA/	.	.	.	.	.	.	.	.	2c/	-ni-	me-
!LO:TX:t=P:problem=kreska pseudotaktowa	!	!	!	!	!	!	!	!	!	!	!
4GG/	.	.	.	.	.	4B\	.	.	.	.	.
!	!	!	!	!	!	!	!	!	!LO:TX:t=P:problem=kreska pseudotaktowa	!	!
1FF	.	.	1F	-ni-	.	4A/	.	.	1c	-trix.	-a
.	.	.	.	.	.	4G/	.	.	.	.	.
.	.	.	.	.	.	1c\	.	.	.	.	.
*	*	*	*Xlig	*	*	*	*	*	*	*	*
=34-	=34-	=34-	=34-	=34-	=34-	=34-	=34-	=34-	=34-	=34-	=34-
!	!	!	!LO:TX:t=P:problem=kreska pseudotaktowa	!	!	!	!	!	!	!	!
1GG	-ni-	me-	1D	-trix	-a	.	.	.	2r	.	.
.	.	.	.	.	.	2B\	-ni-	.	2G/	cum	sed
!	!	!	!	!	!	!LO:TX:t=P:problem=kreska pseudotaktowa	!	!	!	!	!
2FF,</	-trix	-a	1F	cum	sed	1c	-trix	-a	2.A/	tu	in-
!LO:TX:t=P:problem=kreska pseudotaktowa	!	!	!	!	!	!	!	!	!	!	!
2F\	Cum	ſed	.	.	.	.	.	.	.	.	.
.	.	.	.	.	.	.	.	.	4B/	.	-cre-
=35-	=35-	=35-	=35-	=35-	=35-	=35-	=35-	=35-	=35-	=35-	=35-
!	!	!	!	!	!	!	!	!	!LO:TX:t=P:problem=kreska pseudotaktowa	!	!
2E\	tu	in-	1G	tu	in-	2r	.	.	1c	ſis	-dula
2C/	ſis	-cre-	.	.	.	2c\	cum	ſed	.	.	.
!	!	!	!LO:TX:t=P:problem=kreska pseudotaktowa	!	!	!	!	!	!	!	!
2D/	.	.	1F	ſis	-cre-	2A/	.	.	2r	.	.
!	!	!	!	!	!	!	!	!	!LO:TX:t=P:problem=kreska pseudotaktowa	!	!
2D/	pla-	-du-	.	.	.	2B\	tu	in-	2f\	pla-	ma-
=36-	=36-	=36-	=36-	=36-	=36-	=36-	=36-	=36-	=36-	=36-	=36-
*	*	*	*custos:A	*	*	*	*	*	*	*	*
!LO:TX:t=P:problem=kreska pseudotaktowa	!	!	!	!	!	!	!	!	!	!	!
!LO:TX:a:t=c.	!	!	!	!	!	!	!	!	!	!	!
1C	-ſma	-la	1G	plas-	-du-	2c\	ſis	-cre-	2e\	-sma	-net
.	.	.	.	.	.	2c\	pla-	-du-	2c/	.	.
!	!	!	!LO:LB:g=original	!	!	!LO:TX:t=P:problem=kreska pseudotaktowa	!	!	!	!	!
2r	.	.	1A	-ma	-la	1F	-sma	-la	2d\	de	ma-
!LO:TX:t=P:problem=kreska pseudotaktowa	!	!	!	!	!	!	!	!	!LO:TX:t=P:problem=kreska pseudotaktowa	!	!
2F\	de	Ma-	.	.	.	.	.	.	2d\	te	-net
=37-	=37-	=37-	=37-	=37-	=37-	=37-	=37-	=37-	=37-	=37-	=37-
!	!	!	!LO:TX:t=P:problem=kreska pseudotaktowa	!	!	!	!	!	!	!	!
2E\	te	-net	1G	de	ma-	2r	.	.	2c/	na-	Ju-
2C/	.	.	.	.	.	2c\	de	sed	2e\	-scen-	-dae-
2D/	naſ-	Ju-	1F	te	-net	2A/	te	in-	2d\	-tis	-a
*	*	*	*	*	*	*	*	*	*	*ij	*ij
!LO:TX:t=P:problem=kreska pseudotaktowa	!	!	!	!	!	!	!	!	!LO:TX:t=P:problem=kreska pseudotaktowa	!	!
2D/	-cen-	-dae-	.	.	.	2B\	na-	-cre-	2f\	pla-	ma-
=38-	=38-	=38-	=38-	=38-	=38-	=38-	=38-	=38-	=38-	=38-	=38-
2C/	-tis.	-a.	2.G/	nas-	iu-	2c\	-ſcen-	-du-	2e\	-sma	-net
!	!	!	!	!	!	!LO:TX:t=P:problem=kreska pseudotaktowa	!	!	!	!	!
2GG/	.	.	.	.	.	2B\	-tis	-la	2d\	.	.
!	!	!	!LO:TX:t=P:problem=kreska pseudotaktowa	!	!	!	!	!	!	!	!
.	.	.	4F/	.	.	.	.	.	.	.	.
*	*	*	*	*	*	*	*ij	*	*	*	*
2AA/	.	.	2E/	.	.	2A/	de	ma-	2c/	de	ma-
2BB-X/	.	.	2D/	.	.	2G/	te	-net	1d\	te	-net
=39-	=39-	=39-	=39-	=39-	=39-	=39-	=39-	=39-	=39-	=39-	=39-
1AA	.	.	1E	-cen-	-dae-	1A	na-	Ju-	.	.	.
*	*	*	*	*	*	*	*	*	*custos:d	*	*
!	!	!	!	!	!	!	!	!	!LO:TX:t=P:problem=kreska pseudotaktowa	!	!
.	.	.	.	.	.	.	.	.	2c/	na-	Ju-
*lig	*	*	*	*	*	*lig	*	*	*lig	*	*
!	!	!	!	!	!	!	!	!	!LO:LB:g=original	!	!
1BB-y	.	.	[1Dl;	-tis	-a	1F	-scen-	-dae-	1d	-scen-	-dae-
=40-	=40-	=40-	=40-	=40-	=40-	=40-	=40-	=40-	=40-	=40-	=40-
1GG	.	.	0D]	.	.	1B-y	.	.	1g	.	.
*Xlig	*	*	*	*	*	*Xlig	*	*	*Xlig	*	*
1Dl;;	.	.	.	.	.	1Al;;	-tis	-a.	1fl;;	-tis	-a
*	*	*	*	*	*	*	*Xij	*	*	*Xij	*Xij
!LO:PB:g=original	!	!	!	!	!	!LO:LB:g=original	!	!	!	!	!
=41||	=41||	=41||	=41||	=41||	=41||	=41||	=41||	=41||	=41||	=41||	=41||
*M2/1	*	*	*M2/1	*	*	*M2/1	*	*	*M2/1	*	*
*met(C|)	*	*	*met(C|)	*	*	*met(C|)	*	*	*met(C|)	*	*
1A	Cre-	Sci-	1A	Cre-	Sci-	1c	Cre-	Sci-	1e	Cre-	Sci-
2F\	-den-	-mus	1c	-den-	-mus	1.A	-den-	-mus	2f\	-den-	-mus
!LO:TX:t=P:problem=kreska pseudotaktowa	!	!	!	!	!	!	!	!	!	!	!
2F\	-dum	chri-	.	.	.	.	.	.	1f\	-dum	Chri-
=42-	=42-	=42-	=42-	=42-	=42-	=42-	=42-	=42-	=42-	=42-	=42-
!	!	!	!LO:TX:t=P:problem=kreska pseudotaktowa	!	!	!	!	!	!	!	!
1D	eſt	-stum	1d	-dum	chri-	.	.	.	.	.	.
!	!	!	!	!	!	!LO:TX:t=P:problem=kreska pseudotaktowa	!	!	!	!	!
.	.	.	.	.	.	2B-X\	-dum	Chr(i-	4e\	.	.
!	!	!	!	!	!	!	!	!	!LO:TX:t=P:problem=kreska pseudotaktowa	!	!
.	.	.	.	.	.	.	.	.	4d\	.	.
*lig	*	*	*	*	*	*	*	*	*	*	*
1F	ma-	pro-	1A	eſt	-ſtum	2A/	eſt	-st)um	2c/	.	.
.	.	.	.	.	.	1d\	ma-	pro-	2d,<\	eſt	-ſtum
=43-	=43-	=43-	=43-	=43-	=43-	=43-	=43-	=43-	=43-	=43-	=43-
1E	.	.	1G	ma-	pro-	.	.	.	2e\	ma-	pro-
!	!	!	!	!	!	!LO:TX:t=P:problem=kreska pseudotaktowa	!	!	!LO:TX:t=P:problem=kreska pseudotaktowa	!	!
.	.	.	.	.	.	2c\	-gis	-ceſ-	2g\	-gis	-ceſ-
*Xlig	*	*	*	*	*	*	*	*	*	*	*
!LO:TX:t=P:problem=kreska pseudotaktowa	!	!	!LO:TX:t=P:problem=kreska pseudotaktowa	!	!	!	!	!	!	!	!
1D	-gis	-ceſ-	1A	-gis	-ceſ-	2d\	so-	-si-	2f\	ſo-	-si-
.	.	.	.	.	.	2f\	-li	-ſe	2d\	-li	-se
=44-	=44-	=44-	=44-	=44-	=44-	=44-	=44-	=44-	=44-	=44-	=44-
1D	ſo-	-siſ-	1A	ſo-	-si-	1f	Ga-	ex	2d\	Ga-	ex
!	!	!	!	!	!	!	!	!	!LO:TX:t=P:problem=kreska pseudotaktowa	!	!
.	.	.	.	.	.	.	.	.	2d\	-bri-	Ma-
!	!	!	!LO:TX:t=P:problem=kreska pseudotaktowa	!	!	!	!	!	!	!	!
2D/	-li	-se	1A,<	-li	-se	2d\	.	Ma-	1f	-e-	-ri-
2D/	Ga-	a	.	.	.	1f\	-bri-	-ri-	.	.	.
=45-	=45-	=45-	=45-	=45-	=45-	=45-	=45-	=45-	=45-	=45-	=45-
!LO:TX:t=P:problem=kreska pseudotaktowa	!	!	!	!	!	!	!	!	!LO:TX:t=P:problem=kreska pseudotaktowa	!	!
1F	-bri-	mor-	1A	Ga-	ex	.	.	.	1c	-li	-a
.	.	.	.	.	.	4e\	.	.	.	.	.
!	!	!	!	!	!	!LO:TX:t=P:problem=kreska pseudotaktowa	!	!	!	!	!
.	.	.	.	.	.	4d\	.	.	.	.	.
1C	-e-	-tu-	1c	-bri-	ma-	1e	.	.	2.g\	for-	ve-
.	.	.	.	.	.	.	.	.	4f\	.	.
=46-	=46-	=46-	=46-	=46-	=46-	=46-	=46-	=46-	=46-	=46-	=46-
!LO:TX:t=P:problem=kreska pseudotaktowa	!	!	!	!	!	!	!	!	!	!	!
1C	-li	-is	1G	-e-	-ri-	1c	-e-	.	4e\	.	.
.	.	.	.	.	.	.	.	.	4d\	.	.
!	!	!	!	!	!	!	!	!	!LO:TX:t=P:problem=kreska pseudotaktowa	!	!
.	.	.	.	.	.	.	.	.	2e\	.	.
*	*	*	*custos:E	*	*	*	*	*	*	*	*
!	!	!	!LO:TX:t=P:problem=kreska pseudotaktowa	!	!	!	!	!	!	!	!
1D	for-	ve-	1F	-li	-a	1A	-li	-a	1d	.	.
!	!	!	!LO:LB:g=original	!	!	!	!	!	!	!	!
=47-	=47-	=47-	=47-	=47-	=47-	=47-	=47-	=47-	=47-	=47-	=47-
*	*	*	*lig	*	*	*	*	*	*	*	*
!LO:TX:t=P:problem=kreska pseudotaktowa	!	!	!	!	!	!	!	!	!	!	!
1AA	-ti	-re	1E	for-	ue-	1.A	for-	Ve-	2c,</	-ti	-re
!	!	!	!	!	!	!	!	!	!LO:TX:t=P:problem=kreska pseudotaktowa	!	!
.	.	.	.	.	.	.	.	.	2e\	quam	tu
2r	.	.	1F	.	.	.	.	.	2c/	Ju-	no-
!	!	!	!	!	!	!LO:TX:t=P:problem=kreska pseudotaktowa	!	!	!LO:TX:t=P:problem=kreska pseudotaktowa	!	!
1A\	quam	tu	.	.	.	2F/	.	.	2d\	-dae-	-bis
*	*	*	*Xlig	*	*	*	*	*	*	*	*
=48-	=48-	=48-	=48-	=48-	=48-	=48-	=48-	=48-	=48-	=48-	=48-
!	!	!	!LO:TX:t=P:problem=kreska pseudotaktowa	!	!	!	!	!	!	!	!
.	.	.	1D	-ti	-re	2A/	.	.	1f	-o-	na-
!LO:TX:t=P:problem=kreska pseudotaktowa	!	!	!	!	!	!	!	!	!	!	!
2F\	Ju-	no-	.	.	.	2B\	.	.	.	.	.
!	!	!	!LO:TX:t=P:problem=kreska pseudotaktowa	!	!	!	!	!	!	!	!
2G\	-dae-	-bis	1C	quam	tu	2c\	-ti	-re	2e\	-rum	-te
2A\	-o-	na-	.	.	.	1e\	quam	tu	2.c/	pra-	Rex
=49-	=49-	=49-	=49-	=49-	=49-	=49-	=49-	=49-	=49-	=49-	=49-
2E\	-rum	-te	1E	iu-	no-	.	.	.	.	.	.
*	*	*	*	*	*	*	*	*	*custos:e	*	*
.	.	.	.	.	.	.	.	.	4d\	.	Mi-
!	!	!	!	!	!	!	!	!	!LO:LB:g=original	!	!
!	!	!	!	!	!	!LO:TX:t=P:problem=kreska pseudotaktowa	!	!	!LO:TX:t=P::problem=kreska pseudotaktowa&colon;między nutą a kropką	!	!
1G	.	.	.	.	.	2c\	Ju-	no-	2.e\	.	-ſe-
.	.	.	1D	-dae-	-bis	1d	-dae-	-bis	.	.	.
.	.	.	.	.	.	.	.	.	4d\	.	.
!LO:TX:t=P:problem=kreska pseudotaktowa	!	!	!	!	!	!	!	!	!	!	!
2F\	.	.	.	.	.	.	.	.	1d\	-vae	-re-
=50-	=50-	=50-	=50-	=50-	=50-	=50-	=50-	=50-	=50-	=50-	=50-
1E	pra-	Rex	1G	-o-	na-	1e	-o-	na-	.	.	.
!	!	!	!	!	!	!	!	!	!LO:TX:t=P:problem=kreska pseudotaktowa	!	!
.	.	.	.	.	.	.	.	.	2c/	co-	.
*custos:D	*	*	*	*	*	*	*	*	*	*	*
!	!	!	!LO:TX:t=P:problem=kreska pseudotaktowa	!	!	!	!	!	!	!	!
2D/	-vae	mi-	1A	-rum	-te	2A/	-rum	-te	2d\	-ho-	-re
*	*	*	*	*	*	*	*	*	*	*	*ij
!LO:LB:g=original	!	!	!	!	!	!	!	!	!	!	!
!LO:TX:t=P:problem=przekreślona synkopowana wartość	!	!	!	!	!	!	!	!	!	!	!
1D\	con-	-ſe-	.	.	.	4F/	pra-	Rex	1f\	-rti	Rex
!	!	!	!	!	!	!LO:TX:t=P:problem=kreska pseudotaktowa	!	!	!	!	!
.	.	.	.	.	.	4G/	.	.	.	.	.
=51-	=51-	=51-	=51-	=51-	=51-	=51-	=51-	=51-	=51-	=51-	=51-
.	.	.	1A	pra-	rex	4A/	.	.	.	.	.
.	.	.	.	.	.	4B\	.	.	.	.	.
*	*	*	*	*	*	*	*	*	*	*ij	*
!	!	!	!	!	!	!	!	!	!LO:TX:t=P:problem=kreska pseudotaktowa	!	!
2C/	.	.	.	.	.	2c\	.	.	2e\	pra-	.
!LO:TX:t=P:problem=kreska pseudotaktowa	!	!	!LO:TX:t=P:problem=kreska pseudotaktowa	!	!	!	!	!	!	!	!
1D	.	.	1F	-vae	mi-	1A	-vae	mi-	2d\	.	.
.	.	.	.	.	.	.	.	.	1d\	-vae	Mi-
=52-	=52-	=52-	=52-	=52-	=52-	=52-	=52-	=52-	=52-	=52-	=52-
!	!	!	!	!	!	!LO:TX:t=P:problem=kreska pseudotaktowa	!	!	!	!	!
1GG	-ſo-	-re-	2.G\	co-	-se-	1B-X	con-	-ſe-	.	.	.
.	.	.	.	.	.	.	.	.	4c/	.	.
!	!	!	!	!	!	!	!	!	!LO:TX:t=P:problem=kreska pseudotaktowa	!	!
.	.	.	4F/	.	.	.	.	.	4B-y/	.	.
2AA/	.	.	2E/	-ho-	-re-	2A/	-ſo-	-re-	2c/	.	.
2BB-y/	.	.	2D/	.	.	2G/	.	.	1d\	co-	-ſe-
=53-	=53-	=53-	=53-	=53-	=53-	=53-	=53-	=53-	=53-	=53-	=53-
1AA	-rti	-re	1E	.	.	2A/	.	.	.	.	.
*	*	*	*	*	*	*custos:F	*	*	*	*	*
!	!	!	!	!	!	!LO:TX:t=P:problem=kreska pseudotaktowa	!	!	!LO:TX:t=P:problem=kreska pseudotaktowa	!	!
.	.	.	.	.	.	2A/	-rti	-re	2c/	-ho-	-re-
!	!	!	!LO:TX:b:t=Alleluia	!	!	!LO:PB:g=original	!	!	!	!	!
2r	.	.	[1Dl;;	-rti	-re	2F/	Al-	.	2d\	-rti	-re
*	*	*	*	*	*	*	*	*	*	*Xij	*Xij
!LO:TX:t=P:problem=kreska pseudotaktowa	!	!	!	!	!	!	!	!	!	!	!
2D/	Al-	.	.	.	.	2A/	.	.	2f\	Al-	.
=54-	=54-	=54-	=54-	=54-	=54-	=54-	=54-	=54-	=54-	=54-	=54-
!	!	!	!	!	!	!LO:TX:t=P:problem=kreska pseudotaktowa	!	!	!	!	!
2.BB-/	-le-	.	0D_	.	.	1B-y	-le-	.	2d\	-le-	.
!	!	!	!	!	!	!	!	!	!LO:TX:t=P::problem=kreska pseudotaktowa&colon;między nutą a kropką	!	!
.	.	.	.	.	.	.	.	.	2.f\	.	.
4C/	-lu-	.	.	.	.	.	.	.	.	.	.
!LO:TX:t=P:problem=kreska pseudotaktowa	!	!	!	!	!	!	!	!	!	!	!
1D	-ia	.	.	.	.	2A/	.	.	.	.	.
.	.	.	.	.	.	.	.	.	4e\	.	.
.	.	.	.	.	.	2F/	.	.	4d\	.	.
!	!	!	!	!	!	!	!	!	!LO:TX:t=P:problem=kreska pseudotaktowa	!	!
.	.	.	.	.	.	.	.	.	4c/	.	.
=55-	=55-	=55-	=55-	=55-	=55-	=55-	=55-	=55-	=55-	=55-	=55-
2r	.	.	0D_	.	.	2.G/	.	.	4d\	.	.
.	.	.	.	.	.	.	.	.	4c/	.	.
2GG/	Al-	.	.	.	.	.	.	.	4B-X/	.	.
!	!	!	!	!	!	!LO:TX:t=P:problem=kreska pseudotaktowa	!	!	!LO:TX:t=P:problem=kreska pseudotaktowa	!	!
.	.	.	.	.	.	4A/	.	.	4A/	.	.
2GG/	-le-	.	.	.	.	2B-y\	.	.	2G/	.	.
!	!	!	!	!	!	!LO:TX:t=P:problem=kreska pseudotaktowa	!	!	!	!	!
2FF#X/	.	.	.	.	.	2A/	.	.	2A/	.	.
=56-	=56-	=56-	=56-	=56-	=56-	=56-	=56-	=56-	=56-	=56-	=56-
1GG	-lu-	.	0D_	.	.	1.G	.	.	1B-y	.	.
[1Dl;;	-ia	.	.	.	.	.	.	.	0A	-lu-	.
.	.	.	.	.	.	4F/	-lu-	.	.	.	.
.	.	.	.	.	.	4E/	.	.	.	.	.
=57-	=57-	=57-	=57-	=57-	=57-	=57-	=57-	=57-	=57-	=57-	=57-
0D]	.	.	0D]	.	.	0F#Xl;;	-ia.	.	.	.	.
.	.	.	.	.	.	.	.	.	1dl;;	-ia	.
==	==	==	==	==	==	==	==	==	==	==	==
*-	*-	*-	*-	*-	*-	*-	*-	*-	*-	*-	*-
!!!system-decoration: [(*)]
!!!RDF**kern: < = below
!!!RDF**kern: l = terminal long
!!!ENC: Andrzej Borzym
!!!END: 2022-01-06
!!!ENC: Andrzej Kubiczek
!!!END: 2022-01-08
!!!YEC: Copyright 2022 Narodowy Instytut Fryderyka Chopina (https://polishscores.org)
!!!YEM: Licence CC BY 4.0 (https://creativecommons.org/licenses/by/4.0)
